communes/5913.svg

<?xml version="1.0" encoding="UTF-8" standalone="no"?>
<svg
   xmlns:dc="http://purl.org/dc/elements/1.1/"
   xmlns:cc="http://creativecommons.org/ns#"
   xmlns:rdf="http://www.w3.org/1999/02/22-rdf-syntax-ns#"
   xmlns:svg="http://www.w3.org/2000/svg"
   xmlns="http://www.w3.org/2000/svg"
   xmlns:xlink="http://www.w3.org/1999/xlink"
   xmlns:sodipodi="http://sodipodi.sourceforge.net/DTD/sodipodi-0.dtd"
   xmlns:inkscape="http://www.inkscape.org/namespaces/inkscape"
   height="763"
   width="603"
   version="1.0"
   id="svg20"
   sodipodi:version="0.32"
   inkscape:version="0.46"
   sodipodi:docname="Donneloye-coat_of_arms.svg"
   sodipodi:docbase="C:\Documents and Settings\Steve\Bureau\Blason Villages Suisse pour Wikipédia (par Delta-9)"
   inkscape:output_extension="org.inkscape.output.svg.inkscape">
  <metadata
     id="metadata31">
    <rdf:RDF>
      <cc:Work
         rdf:about="">
        <dc:format>image/svg+xml</dc:format>
        <dc:type
           rdf:resource="http://purl.org/dc/dcmitype/StillImage" />
        <dc:date>07-AUG-2006</dc:date>
        <dc:creator>
          <cc:Agent>
            <dc:title>Jérôme BLUM (wagner51)</dc:title>
          </cc:Agent>
        </dc:creator>
        <cc:license
           rdf:resource="http://creativecommons.org/licenses/GPL/2.0/" />
        <dc:coverage />
        <dc:description>Gabarit pour le Projet:Blasons de WIkipédia</dc:description>
        <dc:subject>
          <rdf:Bag>
            <rdf:li>blason suisse modèle gabarit projet blasons</rdf:li>
          </rdf:Bag>
        </dc:subject>
        <dc:language>fr</dc:language>
        <dc:title>Gabrit d'un blason suisse</dc:title>
      </cc:Work>
      <cc:License
         rdf:about="http://creativecommons.org/licenses/GPL/2.0/">
        <cc:permits
           rdf:resource="http://web.resource.org/cc/Reproduction" />
        <cc:permits
           rdf:resource="http://web.resource.org/cc/Distribution" />
        <cc:requires
           rdf:resource="http://web.resource.org/cc/Notice" />
        <cc:permits
           rdf:resource="http://web.resource.org/cc/DerivativeWorks" />
        <cc:requires
           rdf:resource="http://web.resource.org/cc/ShareAlike" />
        <cc:requires
           rdf:resource="http://web.resource.org/cc/SourceCode" />
      </cc:License>
    </rdf:RDF>
  </metadata>
  <defs
     id="defs29"><inkscape:perspective
   sodipodi:type="inkscape:persp3d"
   inkscape:vp_x="0 : 381.5 : 1"
   inkscape:vp_y="0 : 1000 : 0"
   inkscape:vp_z="603 : 381.5 : 1"
   inkscape:persp3d-origin="301.5 : 254.33333 : 1"
   id="perspective28" />
<linearGradient
   id="linearGradient2893">
  <stop
     style="stop-color:#ffffff;stop-opacity:0.3137255;"
     offset="0"
     id="stop2895" />
  <stop
     id="stop2897"
     offset="0.19"
     style="stop-color:#ffffff;stop-opacity:0.25098041;" />
  <stop
     style="stop-color:#6b6b6b;stop-opacity:0.1254902;"
     offset="0.60000002"
     id="stop2901" />
  <stop
     style="stop-color:#000000;stop-opacity:0.1254902;"
     offset="1"
     id="stop2899" />
</linearGradient>
<linearGradient
   id="linearGradient2955">
  <stop
     style="stop-color:white;stop-opacity:0;"
     offset="0"
     id="stop2965" />
  <stop
     style="stop-color:black;stop-opacity:0.64583331;"
     offset="1"
     id="stop2959" />
</linearGradient>
<radialGradient
   inkscape:collect="always"
   xlink:href="#linearGradient2893"
   id="radialGradient3236"
   gradientUnits="userSpaceOnUse"
   gradientTransform="matrix(1.215027,1.531577e-24,1.464684e-23,1.266667,-839.1924,-490.4894)"
   cx="858.04236"
   cy="579.93323"
   fx="858.04236"
   fy="579.93323"
   r="300" />
<inkscape:perspective
   id="perspective2542"
   inkscape:persp3d-origin="297.63751 : 280.63 : 1"
   inkscape:vp_z="595.27502 : 420.94501 : 1"
   inkscape:vp_y="0 : 1000 : 0"
   inkscape:vp_x="0 : 420.94501 : 1"
   sodipodi:type="inkscape:persp3d" />

	
	
	

	
	

		
		
	
		
		
	
			
		
			
			
		
				
				
				
			
				
				
				
				
			
				
				
					
				
				
						
							
						
							
						
							
						
							
						
							
						
							
						
							
						
							
						
							
						
							
						
							
						
							
						
							
						
							
					<inkscape:perspective
   id="perspective2767"
   inkscape:persp3d-origin="372.04724 : 350.78739 : 1"
   inkscape:vp_z="744.09448 : 526.18109 : 1"
   inkscape:vp_y="0 : 1000 : 0"
   inkscape:vp_x="0 : 526.18109 : 1"
   sodipodi:type="inkscape:persp3d" />
</defs>
  <sodipodi:namedview
     inkscape:window-height="968"
     inkscape:window-width="1280"
     inkscape:pageshadow="2"
     inkscape:pageopacity="0.0"
     guidetolerance="10.0"
     gridtolerance="10.0"
     objecttolerance="10.0"
     borderopacity="1.0"
     bordercolor="#666666"
     pagecolor="#ffffff"
     id="base"
     inkscape:zoom="0.93203694"
     inkscape:cx="316.15342"
     inkscape:cy="375.93033"
     inkscape:window-x="1280"
     inkscape:window-y="22"
     inkscape:current-layer="layer2"
     showgrid="false"
     showguides="true"
     inkscape:guide-bbox="true">
    <sodipodi:guide
       orientation="horizontal"
       position="761.5"
       id="guide1885" />
    <sodipodi:guide
       orientation="vertical"
       position="1.5"
       id="guide1887" />
    <sodipodi:guide
       orientation="horizontal"
       position="1.5"
       id="guide1889" />
    <sodipodi:guide
       orientation="vertical"
       position="601.5"
       id="guide1891" />
    <sodipodi:guide
       orientation="vertical"
       position="301.50081"
       id="guide1893" />
  </sodipodi:namedview>
  <desc
     id="desc22">Coat of Arms of Canton of Freiburg (Fribourg)</desc>
  <g
     inkscape:groupmode="layer"
     id="layer1"
     inkscape:label="Fond écu"
     style="opacity:1;display:inline"
     sodipodi:insensitive="true">
    <path
       d="M 1.5,1.5 L 1.5,460.369 C 1.5,626.68 135.814,761.5 301.5,761.5 C 467.187,761.5 601.5,626.68 601.5,460.369 L 601.5,1.5 L 1.5,1.5 z"
       id="path1899_21_"
       style="opacity:1;fill:#2b5df2;display:inline" />
    <path
       style="opacity:1;display:inline"
       d="M 1.5,367 L 1.5,460.369 C 1.5,626.68 135.814,761.5 301.5,761.5 C 467.187,761.5 601.5,626.68 601.5,460.369 L 601.5,367 L 1.5,367 L 1.5,367 z"
       id="path2543" />
  </g>
  <g
     inkscape:groupmode="layer"
     id="layer2"
     inkscape:label="Meubles"
     style="opacity:1;display:inline"
     sodipodi:insensitive="true">
    <g
       id="g2775">
      <polygon
         transform="translate(-3.8e-2,-4.5e-2)"
         style="fill:#fcef3c"
         points="475.787,159.857 475.787,1.545 426.381,1.545 426.381,159.857 301.537,159.857 301.537,209.264 426.381,209.264 426.381,367.045 475.787,367.045 475.787,209.264 601.537,209.264 601.537,159.857 475.787,159.857 "
         id="polygon2501" />
      <polyline
         transform="translate(-3.8e-2,-4.5e-2)"
         id="polyline2505"
         points="601.537,159.857 475.787,159.857 475.787,1.545     "
         style="fill:none;stroke:#000000;stroke-width:3" />
      <polyline
         transform="translate(-3.8e-2,-4.5e-2)"
         id="polyline2507"
         points="475.787,367.045 475.787,209.264 601.537,209.264     "
         style="fill:none;stroke:#000000;stroke-width:3" />
      <polyline
         transform="translate(-3.8e-2,-4.5e-2)"
         id="polyline2509"
         points="426.381,367.045 426.381,209.264 301.537,209.264       301.537,159.857 426.381,159.857 426.381,1.545     "
         style="fill:none;stroke:#000000;stroke-width:3" />
      <path
         d="M 375.5238,92.337188 C 385.50239,90.325231 398.58949,81.153203 404.25776,73.017936 C 409.46744,80.713338 406.95138,94.510638 381.30628,103.83077 C 381.74525,100.63573 376.07876,95.531338 375.5238,92.337188 z"
         sodipodi:nodetypes="cccc"
         id="path2842"
         style="fill:#fcef3c;stroke:#000000;stroke-width:2.67666173;stroke-linecap:round;stroke-linejoin:round" />
      <path
         d="M 373.13086,89.811312 C 372.48668,87.29525 372.72044,81.009556 371.0395,78.754022 C 381.25007,66.697445 389.36482,52.595898 392.69994,41.528794 C 400.11518,49.814847 409.3577,67.175675 373.13086,89.811312 z"
         sodipodi:nodetypes="cccc"
         id="path2840"
         style="fill:#fcef3c;stroke:#000000;stroke-width:2.67666173;stroke-linecap:round;stroke-linejoin:round" />
      <path
         d="M 407.7401,101.11486 C 412.31362,113.28831 391.74437,123.64878 379.80735,118.86291 C 380.45153,115.92929 377.41174,112.08025 376.7622,109.40537 C 385.56663,109.69088 401.77828,103.76297 407.7401,101.11486 z"
         sodipodi:nodetypes="cccc"
         id="path2846"
         style="fill:#fcef3c;stroke:#000000;stroke-width:2.67666173;stroke-linecap:round;stroke-linejoin:round" />
      <path
         d="M 375.34803,117.59685 C 381.87641,121.62255 387.39479,123.54796 401.08592,126.3647 C 398.74741,138.55243 382.71599,137.99122 371.6239,120.82847 L 375.34803,117.59685 z"
         sodipodi:nodetypes="cccc"
         id="path2848"
         style="fill:#fcef3c;stroke:#000000;stroke-width:2.67666173;stroke-linecap:round;stroke-linejoin:round" />
      <path
         d="M 346.1635,23.162433 C 371.8309,23.780742 364.51291,57.089121 352.69098,71.869648 C 351.98702,70.67318 345.26503,65.913183 344.30322,65.232419 C 347.14048,52.338939 349.09801,38.074116 346.1635,23.162433 z"
         sodipodi:nodetypes="cccc"
         id="path2836"
         style="fill:#fcef3c;stroke:#000000;stroke-width:2.67666173;stroke-linecap:round;stroke-linejoin:round" />
      <path
         d="M 369.79307,26.630495 C 397.26989,34.019865 374.69136,70.663366 364.76183,79.681931 C 364.71633,76.270972 355.91458,73.544346 357.32071,69.770253 C 370.54521,52.772558 370.21687,36.645671 369.79307,26.630495 z"
         sodipodi:nodetypes="cccc"
         id="path2838"
         style="fill:#fcef3c;stroke:#000000;stroke-width:2.67666173;stroke-linecap:round;stroke-linejoin:round" />
      <path
         d="M 322.0896,22.367464 C 351.91653,22.473639 341.42313,55.478663 336.78983,70.176213 C 334.09443,70.228854 328.88029,62.837699 326.37672,60.771316 C 328.19239,48.396216 326.26876,32.470971 322.0896,22.367464 z"
         sodipodi:nodetypes="cccc"
         id="path2834"
         style="fill:#fcef3c;stroke:#000000;stroke-width:2.67666173;stroke-linecap:round;stroke-linejoin:round" />
      <path
         d="M 323.39581,61.013108 C 328.94988,60.052186 330.68347,64.722961 333.72505,67.613756 C 334.76181,68.453335 336.66759,68.834313 337.52234,67.878745 C 342.4358,62.387127 347.9979,62.802902 350.73345,71.4164 C 356.85051,65.798979 365.8673,71.828606 364.55306,79.333073 C 374.75738,75.476003 383.60286,85.343071 374.96705,89.198356 C 373.54396,89.833617 373.29414,91.842006 374.80467,92.047217 C 384.87784,92.807389 387.92656,103.10094 377.82573,105.46354 C 376.09036,105.8695 375.66566,108.0367 377.86677,108.91108 C 386.64711,111.01672 385.96903,121.74924 375.35785,120.8249 C 373.10945,120.6304 372.49917,121.37451 374.05164,122.72176 C 383.84465,129.06277 374.68154,139.76585 365.7986,131.47355 C 365.02058,130.74639 364.0436,131.13986 363.89549,132.35596 C 363.59749,139.86578 354.37906,138.02602 349.14351,137.41307 C 344.50397,136.87773 339.16135,136.10775 334.2238,135.86595 C 324.43971,134.98979 336.151,122.80563 342.6535,122.92251 C 344.18544,122.95998 347.64904,122.78511 348.81161,122.45231 C 360.71918,119.83543 354.23899,100.02188 341.7586,108.8852 C 338.25218,111.63146 334.13369,116.89556 331.82016,115.80705 C 326.01091,111.88842 316.31515,108.63092 318.65187,91.054175 C 324.51198,85.188717 324.23271,74.664975 323.39581,61.013108 z"
         sodipodi:nodetypes="ccsccscscscsccccccccc"
         id="path2832"
         style="fill:#fcef3c;stroke:#000000;stroke-width:2.67666173;stroke-linecap:round;stroke-linejoin:round" />
      <path
         d="M 338.55732,74.252769 C 340.1187,72.36483 345.2222,73.143739 345.21685,76.886604"
         sodipodi:nodetypes="cc"
         id="path2850"
         style="fill:none;stroke:#000000;stroke-width:2.67666173;stroke-linecap:round;stroke-linejoin:round" />
      <path
         d="M 351.44277,79.731003 C 353.35212,78.192815 358.19688,79.975472 357.44206,83.642499"
         sodipodi:nodetypes="cc"
         id="path2852"
         style="fill:none;stroke:#000000;stroke-width:2.67666173;stroke-linecap:round;stroke-linejoin:round" />
      <path
         d="M 362.3002,86.470838 C 364.62265,85.685684 368.55288,89.029727 366.58107,92.210493"
         sodipodi:nodetypes="cc"
         id="path2854"
         style="fill:none;stroke:#000000;stroke-width:2.67666173;stroke-linecap:round;stroke-linejoin:round" />
      <path
         d="M 368.78307,96.781339 C 371.20278,97.173024 373.11213,101.96871 369.8805,103.85665"
         sodipodi:nodetypes="cc"
         id="path2856"
         style="fill:none;stroke:#000000;stroke-width:2.67666173;stroke-linecap:round;stroke-linejoin:round" />
      <path
         d="M 370.19635,109.50441 C 372.34303,110.6866 372.53129,115.84542 368.85267,116.53867"
         sodipodi:nodetypes="cc"
         id="path2858"
         style="fill:none;stroke:#000000;stroke-width:2.67666173;stroke-linecap:round;stroke-linejoin:round" />
      <path
         d="M 367.87212,121.37005 C 369.26844,123.38379 367.14049,128.08758 363.53771,127.07134"
         sodipodi:nodetypes="cc"
         id="path2860"
         style="fill:none;stroke:#000000;stroke-width:2.67666173;stroke-linecap:round;stroke-linejoin:round" />
    </g>
    <polygon
       points="235.707,184.294 272.356,120.116 167.82,168.012 215.716,63.476 151.537,100.126 87.36,63.476 135.253,168.012 30.718,120.116 67.369,184.295 30.718,248.472 135.253,200.576 87.36,305.113 151.537,268.462 215.716,305.113 167.82,200.576 272.356,248.472 235.707,184.294 "
       stroke-miterlimit="11"
       id="polygon2467"
       style="fill:#fcef3c;stroke:#000000;stroke-width:3;stroke-miterlimit:11"
       transform="translate(-3.8e-2,-4.5e-2)" />
    <g
       id="g2795">
      <polygon
         transform="translate(-3.8e-2,-4.5e-2)"
         id="polygon2534"
         points="1.54,424.111 51.539,500.778 101.539,424.111 151.538,500.778 201.538,424.111 251.537,500.778 301.538,424.111 351.536,500.778 401.536,424.111 451.535,500.778 501.535,424.111 551.534,500.778 601.534,424.111 601.537,424.111 601.537,367.045 1.538,367.045 1.538,424.111 1.54,424.111 "
         style="fill:#fcef3c" />
      <line
         y2="367.00003"
         x2="601.49902"
         y1="367.00003"
         x1="1.4999983"
         id="line2559"
         style="fill:none;stroke:#000000;stroke-width:3" />
    </g>
  </g>
  <g
     inkscape:groupmode="layer"
     id="layer3"
     inkscape:label="Reflet final"
     style="display:inline"
     sodipodi:insensitive="true">
    <path
       style="fill:url(#radialGradient3236);fill-opacity:1"
       d="M 1.5,1.5 L 1.5,460.3679 C 1.5,626.67854 135.81454,761.5 301.49993,761.5 C 467.1854,761.5 601.5,626.67854 601.5,460.3679 L 601.5,1.5 L 1.5,1.5 z"
       id="path2346" />
  </g>
  <g
     inkscape:groupmode="layer"
     id="layer4"
     inkscape:label="Contour final"
     style="display:inline"
     sodipodi:insensitive="true">
    <path
       style="fill:none;fill-opacity:1;stroke:#000000;stroke-width:3;stroke-miterlimit:4;stroke-dasharray:none;stroke-opacity:1"
       d="M 1.5,1.5 L 1.5,460.36794 C 1.5,626.67854 135.81454,761.5 301.49993,761.5 C 467.1854,761.5 601.5,626.67854 601.5,460.36794 L 601.5,1.5 L 1.5,1.5 z "
       id="path3239" />
  </g>
</svg>

<?xml version="1.0" encoding="UTF-8"?>
<svg version="1.0" viewBox="0 0 603 763" xmlns="http://www.w3.org/2000/svg" xmlns:cc="http://creativecommons.org/ns#" xmlns:dc="http://purl.org/dc/elements/1.1/" xmlns:rdf="http://www.w3.org/1999/02/22-rdf-syntax-ns#" xmlns:xlink="http://www.w3.org/1999/xlink">
<metadata>
<rdf:RDF>
<cc:Work rdf:about="">
<dc:format>image/svg+xml</dc:format>
<dc:type rdf:resource="http://purl.org/dc/dcmitype/StillImage"/>
<dc:date>07-AUG-2006</dc:date>
<dc:creator>
<cc:Agent>
<dc:title>Jérôme BLUM (wagner51)</dc:title>
</cc:Agent>
</dc:creator>
<cc:license rdf:resource="http://creativecommons.org/licenses/GPL/2.0/"/>
<dc:coverage/>
<dc:description>Gabarit pour le Projet:Blasons de WIkipédia</dc:description>
<dc:subject>
<rdf:Bag>
<rdf:li>blason suisse modèle gabarit projet blasons</rdf:li>
</rdf:Bag>
</dc:subject>
<dc:language>fr</dc:language>
<dc:title>Gabrit d'un blason suisse</dc:title>
</cc:Work>
<cc:License rdf:about="http://creativecommons.org/licenses/GPL/2.0/">
<cc:permits rdf:resource="http://web.resource.org/cc/Reproduction"/>
<cc:permits rdf:resource="http://web.resource.org/cc/Distribution"/>
<cc:requires rdf:resource="http://web.resource.org/cc/Notice"/>
<cc:permits rdf:resource="http://web.resource.org/cc/DerivativeWorks"/>
<cc:requires rdf:resource="http://web.resource.org/cc/ShareAlike"/>
<cc:requires rdf:resource="http://web.resource.org/cc/SourceCode"/>
</cc:License>
</rdf:RDF>
</metadata>
<defs>
<radialGradient id="a" cx="858.04" cy="579.93" r="300" gradientTransform="matrix(1.215 1.5316e-24 1.4647e-23 1.2667 -839.19 -490.49)" gradientUnits="userSpaceOnUse">
<stop stop-color="#fff" stop-opacity=".31373" offset="0"/>
<stop stop-color="#fff" stop-opacity=".25098" offset=".19"/>
<stop stop-color="#6b6b6b" stop-opacity=".12549" offset=".6"/>
<stop stop-opacity=".12549" offset="1"/>
</radialGradient>
</defs>
<desc>Coat of Arms of Canton of Freiburg (Fribourg)</desc>
<g>
<path d="m1.5 1.5v458.87c0 166.31 134.31 301.13 300 301.13 165.69 0 300-134.82 300-301.13v-458.87h-600z" fill="#2b5df2"/>
<path d="m1.5 367v93.369c0 166.31 134.31 301.13 300 301.13 165.69 0 300-134.82 300-301.13v-93.369h-600z"/>
<polygon transform="translate(-.038 -.045)" points="475.79 159.86 475.79 1.545 426.38 1.545 426.38 159.86 301.54 159.86 301.54 209.26 426.38 209.26 426.38 367.04 475.79 367.04 475.79 209.26 601.54 209.26 601.54 159.86" fill="#fcef3c"/>
<polyline transform="translate(-.038 -.045)" points="601.54 159.86 475.79 159.86 475.79 1.545" fill="none" stroke="#000" stroke-width="3"/>
<polyline transform="translate(-.038 -.045)" points="475.79 367.04 475.79 209.26 601.54 209.26" fill="none" stroke="#000" stroke-width="3"/>
<polyline transform="translate(-.038 -.045)" points="426.38 367.04 426.38 209.26 301.54 209.26 301.54 159.86 426.38 159.86 426.38 1.545" fill="none" stroke="#000" stroke-width="3"/>
<path d="m375.52 92.337c9.9786-2.012 23.066-11.184 28.734-19.319 5.2097 7.6954 2.6936 21.493-22.951 30.813 0.43897-3.195-5.2275-8.2994-5.7825-11.494z" fill="#fcef3c" stroke="#000" stroke-linecap="round" stroke-linejoin="round" stroke-width="2.6767"/>
<path d="m373.13 89.811c-0.64418-2.5161-0.41042-8.8018-2.0914-11.057 10.211-12.057 18.325-26.158 21.66-37.225 7.4152 8.2861 16.658 25.647-19.569 48.283z" fill="#fcef3c" stroke="#000" stroke-linecap="round" stroke-linejoin="round" stroke-width="2.6767"/>
<path d="m407.74 101.11c4.5735 12.173-15.996 22.534-27.933 17.748 0.64418-2.9336-2.3956-6.7827-3.0452-9.4575 8.8044 0.28551 25.016-5.6424 30.978-8.2905z" fill="#fcef3c" stroke="#000" stroke-linecap="round" stroke-linejoin="round" stroke-width="2.6767"/>
<path d="m375.35 117.6c6.5284 4.0257 12.047 5.9511 25.738 8.7678-2.3385 12.188-18.37 11.627-29.462-5.5362l3.7241-3.2316z" fill="#fcef3c" stroke="#000" stroke-linecap="round" stroke-linejoin="round" stroke-width="2.6767"/>
<path d="m346.16 23.162c25.667 0.61831 18.349 33.927 6.5275 48.707-0.70396-1.1965-7.426-5.9565-8.3878-6.6372 2.8373-12.893 4.7948-27.158 1.8603-42.07z" fill="#fcef3c" stroke="#000" stroke-linecap="round" stroke-linejoin="round" stroke-width="2.6767"/>
<path d="m369.79 26.63c27.477 7.3894 4.8983 44.033-5.0312 53.051-0.0455-3.411-8.8472-6.1376-7.4411-9.9117 13.224-16.998 12.896-33.125 12.472-43.14z" fill="#fcef3c" stroke="#000" stroke-linecap="round" stroke-linejoin="round" stroke-width="2.6767"/>
<path d="m322.09 22.367c29.827 0.10618 19.334 33.111 14.7 47.809-2.6954 0.052641-7.9095-7.3385-10.413-9.4049 1.8157-12.375-0.10796-28.3-4.2871-38.404z" fill="#fcef3c" stroke="#000" stroke-linecap="round" stroke-linejoin="round" stroke-width="2.6767"/>
<path d="m323.4 61.013c5.5541-0.96092 7.2877 3.7099 10.329 6.6006 1.0368 0.83958 2.9425 1.2206 3.7973 0.26499 4.9135-5.4916 10.476-5.0758 13.211 3.5377 6.1171-5.6174 15.134 0.41221 13.82 7.9167 10.204-3.8571 19.05 6.01 10.414 9.8653-1.4231 0.63526-1.6729 2.6436-0.16238 2.8489 10.073 0.76017 13.122 11.054 3.0211 13.416-1.7354 0.40596-2.1601 2.5732 0.04104 3.4475 8.7803 2.1056 8.1023 12.838-2.5089 11.914-2.2484-0.1945-2.8587 0.54961-1.3062 1.8969 9.793 6.341 0.6299 17.044-8.253 8.7518-0.77802-0.72716-1.755-0.33369-1.9031 0.88241-0.298 7.5098-9.5164 5.6701-14.752 5.0571-4.6395-0.53534-9.9822-1.3053-14.92-1.5471-9.7841-0.87616 1.9272-13.06 8.4297-12.943 1.5319 0.03747 4.9955-0.1374 6.1581-0.4702 11.908-2.6169 5.4274-22.43-7.053-13.567-3.5064 2.7463-7.6249 8.0104-9.9384 6.9218-5.8092-3.9186-15.505-7.1761-13.168-24.753 5.8601-5.8655 5.5808-16.389 4.7439-30.041z" fill="#fcef3c" stroke="#000" stroke-linecap="round" stroke-linejoin="round" stroke-width="2.6767"/>
<path d="m338.56 74.253c1.5614-1.8879 6.6649-1.109 6.6595 2.6338" fill="none" stroke="#000" stroke-linecap="round" stroke-linejoin="round" stroke-width="2.6767"/>
<path d="m351.44 79.731c1.9094-1.5382 6.7541 0.24447 5.9993 3.9115" fill="none" stroke="#000" stroke-linecap="round" stroke-linejoin="round" stroke-width="2.6767"/>
<path d="m362.3 86.471c2.3224-0.78515 6.2527 2.5589 4.2809 5.7397" fill="none" stroke="#000" stroke-linecap="round" stroke-linejoin="round" stroke-width="2.6767"/>
<path d="m368.78 96.781c2.4197 0.39168 4.3291 5.1874 1.0974 7.0753" fill="none" stroke="#000" stroke-linecap="round" stroke-linejoin="round" stroke-width="2.6767"/>
<path d="m370.2 109.5c2.1467 1.1822 2.3349 6.341-1.3437 7.0343" fill="none" stroke="#000" stroke-linecap="round" stroke-linejoin="round" stroke-width="2.6767"/>
<path d="m367.87 121.37c1.3963 2.0137-0.73163 6.7175-4.3344 5.7013" fill="none" stroke="#000" stroke-linecap="round" stroke-linejoin="round" stroke-width="2.6767"/>
<polygon transform="translate(-.038 -.045)" points="235.71 184.29 272.36 120.12 167.82 168.01 215.72 63.476 151.54 100.13 87.36 63.476 135.25 168.01 30.718 120.12 67.369 184.3 30.718 248.47 135.25 200.58 87.36 305.11 151.54 268.46 215.72 305.11 167.82 200.58 272.36 248.47" fill="#fcef3c" stroke="#000" stroke-miterlimit="11" stroke-width="3"/>
<polygon transform="translate(-.038 -.045)" points="1.54 424.11 51.539 500.78 101.54 424.11 151.54 500.78 201.54 424.11 251.54 500.78 301.54 424.11 351.54 500.78 401.54 424.11 451.54 500.78 501.54 424.11 551.53 500.78 601.53 424.11 601.54 424.11 601.54 367.04 1.538 367.04 1.538 424.11" fill="#fcef3c"/>
<line x1="1.5" x2="601.5" y1="367" y2="367" fill="none" stroke="#000" stroke-width="3"/>
</g>
<g>
<path d="m1.5 1.5v458.87c0 166.31 134.31 301.13 300 301.13 165.69 0 300-134.82 300-301.13v-458.87h-600z" fill="url(#a)"/>
<path d="m1.5 1.5v458.87c0 166.31 134.31 301.13 300 301.13 165.69 0 300-134.82 300-301.13v-458.87h-600z" fill="none" stroke="#000" stroke-width="3"/>
</g>
</svg>
